X: 164
T: Reel de Montr\'eal
O: NEFR #164
R: reel
B: NEFR #164
Z: 2012 John Chambers <jc:trillian.mit.edu>
M: C|
L: 1/8
K: G
|:\
"G"g2 fe dc BA | GB DG B2 AG | "D7"FA DF A2 GF | "G"GD EF GA Bd |
"G"g2 fe dc BA | GB DG B2 AG | "D7"FG AB cd ef | "G"g2 b2 g4 :|
K: D
|:\
"D"A2 FA d2 Ad | f2 df a2 ab | "A7"a2 g2 e2 g2 | "D"b2 a2 f2 d2 |
"D"A2 FA d2 Ad | f2 df a2 ab | "A7"a2 g2 e2 A2 | "D"d8 :|


